svg/300/sharp/developer_mode-fill.svg

<svg xmlns="http://www.w3.org/2000/svg" width="48" height="48" viewBox="0 -960 960 960"><path d="M344-310.616 174.616-480 344-649.384l31.999 33.23L239.846-480l136.153 136.154L344-310.616Zm-123.999 40.77h45.384v76.384h429.23v-76.384h45.384v209.845H220.001v-209.845Zm45.384-429.23h-45.384v-200.923h519.998v200.923h-45.384v-67.462h-429.23v67.462ZM616-310.616l-31.999-33.23L720.154-480 584.001-616.154 616-649.384 785.384-480 616-310.616Z"/></svg>

<svg xmlns="http://www.w3.org/2000/svg" width="48" height="48" viewBox="0 -960 960 960"><path d="M344-310.62 174.62-480 344-649.38l32 33.23L239.85-480 376-343.85l-32 33.23Zm-124 40.77h45.39v76.39h429.22v-76.39H740V-60H220v-209.85Zm45.39-429.23H220V-900h520v200.92h-45.39v-67.46H265.39v67.46ZM616-310.62l-32-33.23L720.15-480 584-616.15l32-33.23L785.38-480 616-310.62Z"/></svg>
